X:1
T:Title
%%score { 1 | 2 }
L:1/8
M:4/4
K:D
V:1 treble nm="Grand Piano"
V:2 bass 
V:1
 z4 z2 z[Q:1/4=80] D | FFF[EG] [FA][FA][FA][FA] | [GB][Bd][Ac][GB] [FA]3 [FA] | BBGB [FA][FA]FF | %4
 GFED [CE]3 D | FFF[EG] [FA][FA][FA][FA] | [GB][Bd][Ac][GB] [FA]3 [FA] | ^GGFE Edc[Ec] | %8
[M:7/8] [^DB][DF][=D^G] [DB] [CA]3 |[M:1/8] A |[M:4/4] [Fd]>[Ec] [Fd][GB] [FA][=F^G][^FA]d | %11
 cc[Fd][Ge] [Fd]3 [Fd] | [^Gd]>[Gc] [Gd]B cde[Fd] | cdcB [CA]3 D | FFF[EG] [FA][FA][FA][FA] | %15
 [GB][Bd][Ac][GB] [FA]3 [FA] | [Fd][Fd][Ad][DA] [DAc][DGB][DA][A,DF] | %17
[M:7/8] [A,FA][A,EG][A,DF][K:bass] [G,CE] [F,D]3 |] %18
V:2
 z4 z2 z [D,F,] | [D,A,D][D,A,D][D,A,D][D,A,] [D,D][D,D][D,D][D,D] | %2
 [G,D][G,D][G,D][G,D] [D,D]3 [D,D] | [G,DG][G,DG][G,B,D][G,DG][K:bass] [D,D][D,D][D,A,D][D,A,D] | %4
 [E,A,C][D,A,D][C,A,][B,,^G,B,] [A,,A,]3 [D,F,] | %5
 [D,A,D][D,A,D][D,A,D][D,A,] [D,D][D,D][D,D][D,D] | [G,D][G,D][G,D][G,D] [D,D]3 [D,D] | %7
 [E,DE][E,DE][F,D][K:treble][^G,B,D] [A,C][A,F][K:bass][A,E][A,,A,] | %8
[M:7/8] [B,,A,][B,,B,][E,B,] [E,^G,] [A,,A,]3 |[M:1/8] [A,G] | %10
[M:4/4] [D,A,]>[D,A,] [D,A,][D,B,] [D,D][D,D][D,D][F,A,D] | %11
 [A,E][A,E][A,,A,][A,,A,] [D,A,]3 [D,D] | %12
 [E,B,]>[E,^A,] [E,B,][K:treble][DE^G] [CEA][K:bass][B,DE][=A,CE][D,A,] | %13
 [E,A,E][E,B,E][E,A,E][E,^G,D] [A,,A,]3 [D,F,] | [D,A,D][D,A,D][D,A,D][D,A,] [D,D][D,D][D,D][D,D] | %15
 [G,D][G,D][E,D][E,D] [D,D]3 [D,D] | [D,A,][D,A,][F,A,]F, G,G,F,D, |[M:7/8] A,,A,,A,, A,, D,3 |] %18

